X:1377
T:Hele Yar
C:anon.
O:Turkey
Z:Transcribed by Frank Nordberg - http://www.musicaviva.com
F:http://abc.musicaviva.com/tunes/turkey/hele-yar.abc
P:AAAABBCC
M:2/4
L:1/16
Q:1/4=100
K:Am
P:A
~c4 d2c2|.d2dc cBBA|z2 AB ~c3.G|cdBd .c4|
c4 d2c2|.d2dc cBBA|z2 BA ~B2cA|.c2cB BAA2||
P:B
~c4 d2c2|.d2dc cBBA|AGAB ~c3.G|cdBd .c4|
c4 d2c2|.d2dc cBBA|AGcA ~B2cA|.c2cB BAA2||
P:C
ABcd- dcBc-|cBAB- BAGA-|AG2^F- FE2D-|DC2D .D2 z2|
DC^FD CA,3-|A,8-|A,8-|A,8||W:
W:Part order: AAAABBCC
W:
W:
W:  From Musica Viva - http://www.musicaviva.com
W:  the Internet center for free sheet music downloads.
